; generated by Slic3r 1.2.9 on 2015-10-10 at 00:30:45

; external perimeters extrusion width = 0.35mm
; perimeters extrusion width = 0.32mm
; infill extrusion width = 0.38mm
; solid infill extrusion width = 0.35mm
; top infill extrusion width = 0.30mm
; support material extrusion width = 0.40mm

M107
M190 S60 ; set bed temperature
M104 S200 T1 ; set temperature
G28 ; home all axes
G1 Z5 F5000 ; lift nozzle
M109 S200 T1 ; wait for temperature to be reached
G21 ; set units to millimeters
G90 ; use absolute coordinates
M82 ; use absolute distances for extrusion
G92 E0
T1
G92 E0
G1 E-2.50000 F1200.00000
G92 E0
G1 Z0.300 F6000.000
G1 X108.030 Y157.489 F6000.000
G1 E2.50000 F1200.00000
G1 X109.052 Y156.559 E2.53141 F1800.000
G1 X110.933 Y155.016 E2.58670
G1 X111.671 Y154.493 E2.60727
G1 X112.068 Y154.263 E2.61769
G1 X114.696 Y152.859 E2.68542
G1 X115.630 Y152.450 E2.70861
G1 X116.342 Y152.212 E2.72567
G1 X118.922 Y151.431 E2.78694
G1 X119.769 Y151.238 E2.80670
G1 X120.309 Y151.162 E2.81908
G1 X123.391 Y150.861 E2.88949
G1 X124.520 Y150.861 E2.91515
G1 X153.814 Y153.683 E3.58416 F1800.000
G1 X154.787 Y153.850 E3.60660
G1 X176.094 Y158.845 E4.10409
G1 X185.867 Y161.174 E4.33249
G1 X189.067 Y162.130 E4.40839
G1 X189.813 Y162.390 E4.42635
G1 X190.424 Y162.658 E4.44152
G1 X191.496 Y163.205 E4.46888
G1 X193.317 Y164.178 E4.51583
G1 X193.831 Y164.473 E4.52930
G1 X194.681 Y165.065 E4.55283
G1 X197.135 Y167.079 E4.62501
G1 X197.767 Y167.672 E4.64471
G1 X198.291 Y168.253 E4.66250
G1 X200.203 Y170.582 E4.73100
G1 X200.717 Y171.304 E4.75113
G1 X201.074 Y171.905 E4.76704
G1 X202.515 Y174.600 E4.83651
G1 X202.850 Y175.332 E4.85479
G1 X203.080 Y175.969 E4.87020
G1 X204.048 Y179.170 E4.94622
G1 X204.281 Y180.369 E4.97397
G1 X204.597 Y183.578 E5.04727
G1 X204.630 Y184.365 E5.06519
G1 X204.599 Y185.052 E5.08082
G1 X204.320 Y187.893 E5.14571
G1 X204.206 Y188.607 E5.16215
G1 X203.971 Y189.690 E5.18735
G1 X203.838 Y190.204 E5.19941
G1 X203.130 Y192.532 E5.25473
G1 X198.587 Y206.853 E5.59627
G1 X198.201 Y207.805 E5.61963
G1 X197.713 Y208.778 E5.64437
G1 X197.414 Y209.310 E5.65823
G1 X195.503 Y212.373 E5.74030
G1 X195.070 Y212.986 E5.75737
G1 X193.999 Y214.292 E5.79577
G1 X193.420 Y214.911 E5.81502
G1 X192.455 Y215.802 E5.84488
G1 X190.490 Y217.414 E5.90267
G1 X190.072 Y217.730 E5.91458
G1 X189.352 Y218.178 E5.93386
G1 X186.399 Y219.745 E6.00985
G1 X169.834 Y227.453 E6.42517
G1 X168.975 Y227.781 E6.44608
G1 X166.250 Y228.608 E6.51081
G1 X165.661 Y228.769 E6.52469
G1 X164.828 Y228.934 E6.54401
G1 X164.554 Y228.966 E6.55026
G1 X161.720 Y229.246 E6.61500
G1 X161.158 Y229.282 E6.62780
G1 X160.173 Y229.261 E6.65021
G1 X157.046 Y228.954 E6.72163
G1 X142.452 Y227.354 E7.05538
G1 X141.911 Y227.275 E7.06780
G1 X141.163 Y227.107 E7.08524
G1 X138.580 Y226.327 E7.14658
G1 X138.037 Y226.145 E7.15958
G1 X117.455 Y218.360 E7.65983
G1 X116.838 Y218.090 E7.67512
G1 X116.223 Y217.781 E7.69077
G1 X113.944 Y216.568 E7.74945
G1 X112.975 Y215.933 E7.77580
G1 X110.659 Y214.042 E7.84376
G1 X109.943 Y213.410 E7.86548
G1 X103.025 Y206.477 E8.08812
G1 X102.352 Y205.733 E8.11093
G1 X100.440 Y203.403 E8.17944
G1 X99.966 Y202.747 E8.19783
G1 X99.568 Y202.085 E8.21539
G1 X98.127 Y199.391 E8.28485
G1 X97.836 Y198.782 E8.30018
G1 X97.554 Y198.038 E8.31828
G1 X96.600 Y194.902 E8.39280
G1 X96.429 Y194.204 E8.40913
G1 X96.312 Y193.453 E8.42640
G1 X95.997 Y190.245 E8.49968
G1 X95.979 Y189.305 E8.52105
G1 X96.035 Y188.383 E8.54206
G1 X96.317 Y185.516 E8.60754
G1 X96.537 Y184.361 E8.63428
G1 X97.303 Y181.828 E8.69444
G1 X102.896 Y165.413 E9.08864
G1 X103.239 Y164.592 E9.10887
G1 X103.723 Y163.627 E9.13340
G1 X104.023 Y163.093 E9.14733
G1 X105.926 Y160.046 E9.22901
G1 X106.359 Y159.435 E9.24603
G1 X107.429 Y158.128 E9.28443
G1 X107.994 Y157.527 E9.30319
G1 E6.80319 F1200.00000
G92 E0
G1 X112.436 Y162.330 F6000.000
G1 E2.50000 F1200.00000
G1 X108.165 Y170.853 E2.63580 F1800.000
G1 X108.073 Y171.788 F6000.000
G1 X113.155 Y161.648 E2.79735 F1800.000
G1 X113.794 Y161.123 F6000.000
G1 X107.980 Y172.723 E2.98217 F1800.000
G1 E0.48217 F1200.00000
G92 E0
G1 X108.507 Y169.420 F6000.000
G1 E2.50000 F1200.00000
G1 X111.469 Y163.508 E2.59419 F1800.000
G1 E0.09419 F1200.00000
G92 E0
G1 X114.434 Y160.598 F6000.000
G1 E2.50000 F1200.00000
G1 X107.912 Y173.610 E2.70733 F1800.000
G1 X107.974 Y174.238 E2.71631
G1 X115.073 Y160.073 E2.94200
G1 X115.590 Y159.793 E2.95037
G1 X108.036 Y174.865 E3.19052
G1 X108.097 Y175.493 E3.19950
G1 X116.104 Y159.518 E3.45403
G1 X116.618 Y159.244 E3.46233
G1 X108.159 Y176.120 E3.73122
G1 X107.710 Y177.017 F6000.000
G1 X102.747 Y186.919 E3.88900 F1800.000
G1 X102.655 Y187.853 F6000.000
G1 X117.132 Y158.969 E4.34921 F1800.000
G1 X117.646 Y158.695 E4.35751
G1 X102.563 Y188.788 E4.83699
G1 X102.505 Y189.654 F6000.000
G1 X118.117 Y158.505 E5.33329 F1800.000
G1 X118.561 Y158.370 E5.33990
G1 X102.567 Y190.281 E5.84834
G1 X102.629 Y190.909 E5.85732
G1 X119.005 Y158.236 E6.37791
G1 X119.449 Y158.101 E6.38452
G1 X102.691 Y191.537 E6.91726
G1 X102.752 Y192.165 E6.92624
G1 X119.893 Y157.966 E7.47113
G1 X120.337 Y157.832 E7.47774
G1 X102.814 Y192.793 E8.03477
G1 X102.942 Y193.289 E8.04207
G1 X120.780 Y157.697 E8.60915
G1 X121.183 Y157.645 E8.61493
G1 X103.084 Y193.756 E9.19029
G1 X103.226 Y194.224 E9.19726
G1 X121.579 Y157.606 E9.78069
G1 X121.975 Y157.567 E9.78636
G1 X103.368 Y194.692 E10.37787
G1 X103.510 Y195.159 E10.38483
G1 X122.371 Y157.528 E10.98441
G1 X122.767 Y157.489 E10.99008
G1 X103.652 Y195.627 E11.59774
G1 X103.794 Y196.095 E11.60470
G1 X123.163 Y157.450 E12.22043
G1 X123.559 Y157.411 E12.22609
G1 X103.980 Y196.473 E12.84848
G1 X104.175 Y196.837 E12.85434
G1 X123.954 Y157.372 E13.48314
G1 X124.313 Y157.407 E13.48827
G1 X104.369 Y197.200 E14.12230
G1 X104.563 Y197.563 E14.12816
G1 X124.672 Y157.442 E14.76741
G1 X125.031 Y157.478 E14.77255
G1 X104.757 Y197.927 E15.41702
G1 X104.952 Y198.290 E15.42289
G1 X125.389 Y157.513 E16.07259
G1 X125.748 Y157.548 E16.07773
G1 X105.146 Y198.653 E16.73265
G1 X105.340 Y199.017 E16.73852
G1 X126.107 Y157.584 E17.39868
G1 X126.465 Y157.619 E17.40381
G1 X105.558 Y199.334 E18.06845
G1 X105.791 Y199.619 E18.07370
G1 X126.824 Y157.655 E18.74231
G1 X127.172 Y157.710 E18.74734
G1 X106.025 Y199.903 E19.41961
G1 X106.259 Y200.188 E19.42486
G1 X127.499 Y157.809 E20.10009
G1 X127.826 Y157.908 E20.10495
G1 X106.492 Y200.473 E20.78313
G1 X106.726 Y200.758 E20.78838
G1 X128.153 Y158.007 E21.46952
G1 X128.479 Y158.106 E21.47439
G1 X106.960 Y201.042 E22.15849
G1 X107.193 Y201.327 E22.16374
G1 X128.806 Y158.205 E22.85080
G1 X129.133 Y158.305 E22.85566
G1 X107.427 Y201.612 E23.54568
G1 X107.672 Y201.874 E23.55079
G1 X129.459 Y158.404 E24.24340
G1 X129.786 Y158.503 E24.24827
G1 X107.939 Y202.093 E24.94279
G1 X108.205 Y202.312 E24.94771
G1 X130.108 Y158.611 E25.64399
G1 X130.405 Y158.769 E25.64879
G1 X108.472 Y202.530 E26.34604
G1 X108.739 Y202.749 E26.35095
G1 X130.702 Y158.928 E27.04916
G1 X130.999 Y159.087 E27.05395
G1 X109.005 Y202.968 E27.75312
G1 X109.272 Y203.187 E27.75804
G1 X131.296 Y159.245 E28.45816
G1 X131.593 Y159.404 E28.46296
G1 X109.539 Y203.406 E29.16404
G1 X109.806 Y203.625 E29.16896
G1 X131.890 Y159.563 E29.87100
G1 X132.186 Y159.721 E29.87580
G1 X110.072 Y203.843 E30.57880
G1 X110.353 Y204.034 E30.58363
G1 X132.483 Y159.880 E31.28715
G1 X132.780 Y160.039 E31.29194
G1 X110.650 Y204.193 E31.99545
G1 X110.947 Y204.351 E32.00025
G1 X133.051 Y160.249 E32.70294
G1 X133.395 Y160.315 F6000.000
G1 X111.244 Y204.510 E33.40711 F1800.000
G1 X111.541 Y204.669 E33.41190
G1 X133.838 Y160.180 E34.12074
G1 X134.282 Y160.046 E34.12735
G1 X111.801 Y204.900 E34.84203
G1 X111.995 Y205.264 E34.84789
G1 X134.726 Y159.911 E35.57050
G1 X135.170 Y159.777 E35.57711
G1 X112.189 Y205.627 E36.30765
G1 X112.384 Y205.991 E36.31352
G1 X135.614 Y159.642 E37.05199
G1 X136.032 Y159.559 E37.05806
G1 X112.578 Y206.354 E37.80365
G1 X112.808 Y206.645 E37.80894
G1 X136.428 Y159.520 E38.55978
G1 X136.824 Y159.481 E38.56545
G1 X113.042 Y206.929 E39.32146
G1 X113.276 Y207.214 E39.32670
G1 X137.219 Y159.442 E40.08786
G1 X137.615 Y159.403 E40.09353
G1 X113.510 Y207.499 E40.85985
G1 X113.743 Y207.783 E40.86510
G1 X138.011 Y159.364 E41.63657
G1 X138.407 Y159.325 E41.64224
G1 X113.977 Y208.068 E42.41888
G1 X114.211 Y208.353 E42.42412
G1 X138.771 Y159.351 E43.20488
G1 X139.129 Y159.386 E43.21001
G1 X114.444 Y208.637 E43.99473
G1 X114.692 Y208.894 E43.99982
G1 X139.488 Y159.422 E44.78807
G1 X139.846 Y159.457 E44.79320
G1 X114.959 Y209.113 E45.58437
G1 X115.225 Y209.332 E45.58929
G1 X140.205 Y159.492 E46.38339
G1 X140.564 Y159.528 E46.38852
G1 X115.492 Y209.551 E47.18554
G1 X115.759 Y209.770 E47.19046
G1 X140.922 Y159.563 E47.99040
G1 X141.264 Y159.632 E47.99537
G1 X116.025 Y209.989 E48.79771
G1 X116.292 Y210.208 E48.80262
G1 X141.591 Y159.731 E49.60687
G1 X141.918 Y159.830 E49.61173
G1 X116.559 Y210.426 E50.41789
G1 X116.825 Y210.645 E50.42280
G1 X142.244 Y159.929 E51.23087
G1 X142.571 Y160.028 E51.23574
G1 X117.103 Y210.843 E52.04537
G1 X117.400 Y211.001 E52.05017
G1 X142.898 Y160.127 E52.86075
G1 X143.225 Y160.226 E52.86561
G1 X117.696 Y211.160 E53.67715
G1 X117.993 Y211.319 E53.68194
G1 X143.551 Y160.325 E54.49443
G1 X143.855 Y160.470 E54.49923
G1 X118.290 Y211.478 E55.31193
G1 X118.587 Y211.636 E55.31673
G1 X144.152 Y160.629 E56.12943
G1 X144.449 Y160.787 E56.13423
G1 X118.884 Y211.795 E56.94694
G1 X119.182 Y211.951 E56.95173
G1 X144.746 Y160.946 E57.76439
G1 X145.043 Y161.105 E57.76919
G1 X119.483 Y212.102 E58.58173
G1 X119.784 Y212.253 E58.58652
G1 X145.339 Y161.264 E59.39893
G1 X145.726 Y161.243 F6000.000
G1 X120.103 Y212.367 E60.21350 F1800.000
G1 X120.430 Y212.466 E60.21836
G1 X146.240 Y160.968 E61.03888
G1 X146.708 Y160.785 E61.04603
G1 X120.756 Y212.565 E61.87104
G1 X121.083 Y212.664 E61.87590
G1 X147.152 Y160.651 E62.70463
G1 X147.596 Y160.516 E62.71124
G1 X121.410 Y212.763 E63.54370
G1 X121.736 Y212.862 E63.54856
G1 X148.040 Y160.381 E64.38475
G1 X148.484 Y160.247 E64.39135
G1 X122.063 Y212.961 E65.23126
G1 X122.390 Y213.060 E65.23613
G1 X148.897 Y160.174 E66.07878
G1 X149.293 Y160.135 E66.08444
G1 X122.716 Y213.160 E66.92930
G1 X123.072 Y213.202 E66.93439
G1 X149.689 Y160.096 E67.78054
G1 X150.085 Y160.056 E67.78620
G1 X123.430 Y213.237 E68.63353
G1 X123.789 Y213.272 E68.63866
G1 X150.481 Y160.017 E69.48718
G1 X150.876 Y159.978 E69.49284
G1 X124.148 Y213.308 E70.34254
G1 X124.506 Y213.343 E70.34768
G1 X151.243 Y159.999 E71.19761
G1 X151.601 Y160.034 E71.20275
G1 X124.865 Y213.378 E72.05268
G1 X125.224 Y213.414 E72.05781
G1 X151.960 Y160.070 E72.90775
G1 X152.319 Y160.105 E72.91288
G1 X125.582 Y213.449 E73.76281
G1 X125.949 Y213.469 E73.76804
G1 X152.677 Y160.140 E74.61773
G1 X153.036 Y160.176 E74.62286
G1 X126.345 Y213.430 E75.47136
G1 X126.741 Y213.391 E75.47702
G1 X153.383 Y160.233 E76.32398
G1 X153.710 Y160.333 E76.32884
G1 X127.137 Y213.352 E77.17360
G1 X127.533 Y213.312 E77.17927
G1 X154.037 Y160.432 E78.02182
G1 X154.363 Y160.531 E78.02668
G1 X127.929 Y213.273 E78.86704
G1 X128.325 Y213.234 E78.87270
G1 X154.690 Y160.630 E79.71085
G1 X155.017 Y160.729 E79.71572
G1 X128.721 Y213.195 E80.55166
G1 X129.133 Y213.123 E80.55763
G1 X155.343 Y160.828 E81.39085
G1 X155.654 Y160.959 E81.39565
G1 X129.577 Y212.989 E82.22464
G1 X130.021 Y212.854 E82.23124
G1 X155.951 Y161.118 E83.05556
G1 X156.248 Y161.277 E83.06035
G1 X130.465 Y212.719 E83.87999
G1 X130.908 Y212.585 E83.88660
G1 X156.545 Y161.435 E84.70157
G1 X156.842 Y161.594 E84.70636
G1 X131.352 Y212.450 E85.51666
G1 X131.796 Y212.316 E85.52327
G1 X157.138 Y161.753 E86.32889
G1 X157.435 Y161.911 E86.33368
G1 X132.282 Y212.097 E87.13330
G1 X132.517 Y212.379 E87.13853
G1 X157.713 Y162.108 E87.93950
G1 X157.980 Y162.327 E87.94442
G1 X132.711 Y212.742 E88.74770
G1 X132.906 Y213.106 E88.75357
G1 X158.247 Y162.545 E89.55915
G1 X158.513 Y162.764 E89.56406
G1 X133.100 Y213.469 E90.37195
G1 X133.294 Y213.833 E90.37782
G1 X158.780 Y162.983 E91.18801
G1 X159.047 Y163.202 E91.19292
G1 X133.488 Y214.196 E92.00541
G1 X133.683 Y214.560 E92.01128
G1 X159.313 Y163.421 E92.82608
G1 X159.551 Y163.698 E92.83128
G1 X133.909 Y214.859 E93.64643
G1 X134.142 Y215.144 E93.65168
G1 X159.989 Y163.575 E94.47334
G1 X160.433 Y163.440 E94.47995
G1 X134.376 Y215.429 E95.30829
G1 X134.610 Y215.714 E95.31354
G1 X160.865 Y163.329 E96.14819
G1 X161.261 Y163.290 E96.15386
G1 X134.843 Y215.998 E96.99367
G1 X135.077 Y216.283 E96.99892
G1 X161.657 Y163.251 E97.84388
G1 X162.053 Y163.212 E97.84955
G1 X135.311 Y216.568 E98.69968
G1 X135.545 Y216.851 E98.70491
G1 X162.449 Y163.173 E99.56015
G1 X162.844 Y163.134 E99.56582
G1 X135.812 Y217.069 E100.42517
G1 X136.079 Y217.288 E100.43009
G1 X163.214 Y163.149 E101.29270
G1 X163.572 Y163.184 E101.29783
G1 X136.345 Y217.507 E102.16337
G1 X136.612 Y217.726 E102.16828
G1 X163.931 Y163.219 E103.03674
G1 X164.290 Y163.254 E103.04188
G1 X136.879 Y217.945 E103.91326
G1 X137.145 Y218.164 E103.91818
G1 X164.648 Y163.290 E104.79248
G1 X165.007 Y163.325 E104.79762
G1 X137.412 Y218.382 E105.67485
G1 X137.679 Y218.601 E105.67977
G1 X165.346 Y163.400 E106.55929
G1 X165.673 Y163.499 E106.56416
G1 X137.968 Y218.776 E107.44488
G1 X138.265 Y218.934 E107.44968
G1 X165.999 Y163.598 E108.33135
G1 X166.326 Y163.698 E108.33621
G1 X138.561 Y219.093 E109.21884
G1 X138.858 Y219.252 E109.22363
G1 X166.653 Y163.797 E110.10720
G1 X166.979 Y163.896 E110.11206
G1 X139.155 Y219.410 E110.99658
G1 X139.452 Y219.569 E111.00138
G1 X167.300 Y164.006 E111.88667
G1 X167.597 Y164.165 E111.89146
G1 X139.749 Y219.728 E112.77675
G1 X140.046 Y219.886 E112.78155
G1 X167.894 Y164.323 E113.66684
G1 X168.191 Y164.482 E113.67163
G1 X140.349 Y220.032 E114.55671
G1 X140.676 Y220.131 E114.56157
G1 X168.488 Y164.641 E115.44570
G1 X168.785 Y164.799 E115.45050
G1 X141.003 Y220.230 E116.33368
G1 X141.329 Y220.329 E116.33854
G1 X169.082 Y164.958 E117.22077
G1 X169.359 Y165.156 E117.22563
G1 X141.656 Y220.428 E118.10628
G1 X141.983 Y220.527 E118.11115
G1 X169.625 Y165.375 E118.98989
G1 X169.892 Y165.594 E118.99481
G1 X142.310 Y220.626 E119.87165
G1 X142.636 Y220.726 E119.87651
G1 X170.159 Y165.813 E120.75144
G1 X170.622 Y165.640 F6000.000
G1 X142.963 Y220.825 E121.63071 F1800.000
G1 X143.316 Y220.870 E121.63579
G1 X171.187 Y165.262 E122.52179
G1 X171.622 Y165.146 E122.52820
G1 X143.675 Y220.906 E123.41663
G1 X144.034 Y220.941 E123.42176
G1 X172.040 Y165.062 E124.31208
G1 X172.458 Y164.979 E124.31816
G1 X144.392 Y220.976 E125.21036
G1 X144.751 Y221.011 E125.21550
G1 X172.877 Y164.896 E126.10959
G1 X173.233 Y164.935 E126.11470
G1 X145.110 Y221.047 E127.00873
G1 X145.469 Y221.082 E127.01387
G1 X173.575 Y165.003 E127.90737
G1 X173.917 Y165.072 E127.91234
G1 X145.827 Y221.117 E128.80533
G1 X146.219 Y221.086 E128.81093
G1 X174.260 Y165.140 E129.70233
G1 X174.602 Y165.208 E129.70730
G1 X146.615 Y221.047 E130.59699
G1 X147.011 Y221.008 E130.60266
G1 X174.894 Y165.376 E131.48905
G1 X175.176 Y165.564 E131.49388
G1 X147.407 Y220.969 E132.37666
G1 X147.803 Y220.930 E132.38232
G1 X175.458 Y165.753 E133.26147
G1 X175.740 Y165.941 E133.26630
G1 X148.199 Y220.891 E134.14183
G1 X148.595 Y220.852 E134.14750
G1 X176.022 Y166.129 E135.01941
G1 X176.257 Y166.412 E135.02464
G1 X149.024 Y220.747 E135.89036
G1 X149.468 Y220.612 E135.89696
G1 X176.472 Y166.734 E136.75541
G1 X176.687 Y167.056 E136.76092
G1 X149.912 Y220.477 E137.61209
G1 X150.356 Y220.343 E137.61870
G1 X176.902 Y167.378 E138.46259
G1 X177.137 Y167.659 E138.46781
G1 X150.800 Y220.208 E139.30507
G1 X151.243 Y220.073 E139.31168
G1 X177.581 Y167.525 E140.14894
G1 X177.980 Y167.480 E140.15466
G1 X151.702 Y219.910 E140.99003
G1 X151.983 Y220.099 E140.99486
G1 X178.376 Y167.441 E141.83387
G1 X178.772 Y167.402 E141.83954
G1 X152.280 Y220.258 E142.68170
G1 X152.577 Y220.417 E142.68650
G1 X179.168 Y167.363 E143.53181
G1 X179.564 Y167.324 E143.53748
G1 X152.874 Y220.575 E144.38594
G1 X153.171 Y220.734 E144.39074
G1 X179.960 Y167.285 E145.24235
G1 X180.355 Y167.246 E145.24802
G1 X153.467 Y220.893 E146.10278
G1 X153.764 Y221.051 E146.10757
G1 X180.751 Y167.207 E146.96549
G1 X181.129 Y167.204 E146.97087
