; generated by Slic3r 1.2.9 on 2015-10-10 at 03:19:41

; external perimeters extrusion width = 0.35mm
; perimeters extrusion width = 0.32mm
; infill extrusion width = 0.38mm
; solid infill extrusion width = 0.35mm
; top infill extrusion width = 0.30mm
; support material extrusion width = 0.40mm

M107
M190 S60 ; set bed temperature
M104 S200 T1 ; set temperature
G28 ; home all axes
G1 Z5 F5000 ; lift nozzle
M109 S200 T1 ; wait for temperature to be reached
G21 ; set units to millimeters
G90 ; use absolute coordinates
M82 ; use absolute distances for extrusion
G92 E0
T1
G92 E0
G1 E-2.50000 F1200.00000
G92 E0
G1 Z0.300 F6000.000
G1 X141.282 Y183.585 F6000.000
G1 E2.50000 F1200.00000
G1 X142.098 Y182.770 E2.52621 F900.000
G1 X144.212 Y181.356 E2.58403
G1 X145.243 Y180.928 E2.60940
G1 X146.988 Y180.473 E2.65041
G1 X147.928 Y180.392 E2.67184
G1 X148.987 Y180.388 E2.69592
G1 X150.730 Y180.625 E2.73590
G1 X151.606 Y180.905 E2.75681 F900.000
G1 X152.536 Y181.289 E2.77970
G1 X153.169 Y181.593 E2.79564
G1 X153.690 Y181.895 E2.80934
G1 X153.861 Y182.005 E2.81396
G1 X155.377 Y183.356 E2.86011
G1 X156.440 Y184.661 E2.89838
G1 X157.741 Y187.463 E2.96861
G1 X158.026 Y188.933 E3.00265
G1 X157.885 Y191.607 E3.06353
G1 X157.454 Y193.233 E3.10177
G1 X156.979 Y194.488 E3.13226
G1 X156.806 Y194.834 E3.14107
G1 X155.584 Y196.527 E3.18853
G1 X154.769 Y197.343 E3.21474
G1 X152.931 Y198.634 E3.26580
G1 X152.269 Y198.943 E3.28241
G1 X151.606 Y199.220 E3.29874
G1 X150.078 Y199.645 E3.33480
G1 X149.736 Y199.697 E3.34266
G1 X148.915 Y199.768 E3.36140
G1 X147.856 Y199.772 E3.38547
G1 X146.361 Y199.599 E3.41968
G1 X146.139 Y199.547 E3.42487
G1 X145.233 Y199.263 E3.44645
G1 X144.250 Y198.853 E3.47067
G1 X143.672 Y198.572 E3.48527
G1 X143.035 Y198.194 E3.50210
G1 X142.867 Y198.081 E3.50673
G1 X141.897 Y197.282 E3.53529
G1 X141.183 Y196.563 E3.55832
G1 X140.531 Y195.776 E3.58155
G1 X139.688 Y194.312 E3.61995
G1 X139.220 Y193.171 E3.64798
G1 X138.813 Y191.256 E3.69250
G1 X138.775 Y190.610 E3.70719
G1 X138.766 Y190.027 E3.72044
G1 X138.947 Y188.642 E3.75220
G1 X139.305 Y187.163 E3.78680
G1 X139.806 Y185.787 E3.82008
G1 X140.070 Y185.260 E3.83348
G1 X141.252 Y183.628 E3.87929
G1 E1.37929 F1200.00000
G92 E0
G1 X145.903 Y188.209 F6000.000
G1 E2.50000 F1200.00000
G1 X145.659 Y188.695 E2.50776 F900.000
G1 X146.673 Y187.439 F6000.000
G1 X145.300 Y190.177 E2.55139 F900.000
G1 X145.337 Y190.869 E2.56126
G1 X147.175 Y187.204 E2.61967
G1 X147.659 Y187.003 E2.62715
G1 X145.511 Y191.289 E2.69544
G1 X145.685 Y191.708 E2.70191
G1 X148.082 Y186.926 E2.77810
G1 X148.466 Y186.926 E2.78357
G1 X145.902 Y192.041 E2.86508
G1 X146.158 Y192.297 E2.87023
G1 X148.850 Y186.926 E2.95581
G1 X149.205 Y186.984 E2.96094
G1 X146.414 Y192.553 E3.04966
G1 X146.687 Y192.774 E3.05467
G1 X149.523 Y187.116 E3.14483
G1 X149.841 Y187.248 E3.14973
G1 X146.998 Y192.920 E3.24011
G1 X147.316 Y193.052 E3.24502
G1 X150.153 Y187.391 E3.33522
G1 X150.421 Y187.623 E3.34026
G1 X147.634 Y193.184 E3.42887
G1 X147.993 Y193.234 E3.43404
G1 X150.659 Y187.913 E3.51881
G1 X150.898 Y188.204 E3.52417
G1 X148.377 Y193.234 E3.60431
G1 X148.761 Y193.234 E3.60978
G1 X151.136 Y188.495 E3.68530
G1 X151.349 Y188.836 E3.69103
G1 X149.190 Y193.145 E3.75969
G1 X149.674 Y192.944 E3.76716
G1 X151.458 Y189.385 E3.82387
G1 X151.567 Y189.933 E3.83184
G1 X150.194 Y192.674 E3.87550
G1 X150.964 Y191.904 F6000.000
G1 X151.136 Y191.561 E3.88095 F900.000
M106 S255
G1 E1.38095 F1200.00000
G92 E0
G1 Z0.563 F6000.000
G1 X151.137 Y191.559 F6000.000
G1 E2.50000 F1200.00000
G1 X150.963 Y191.906 E2.50495 F900.000
G1 X150.148 Y192.721 F6000.000
G1 X151.562 Y189.899 E2.54524 F900.000
G1 X151.447 Y189.318 E2.55280
G1 X149.616 Y192.970 E2.60493
G1 X149.103 Y193.183 E2.61202
G1 X151.331 Y188.737 E2.67548
G1 X151.081 Y188.424 E2.68059
G1 X148.669 Y193.236 E2.74929
G1 X148.263 Y193.236 E2.75448
G1 X150.829 Y188.116 E2.82757
G1 X150.576 Y187.809 E2.83265
G1 X147.856 Y193.236 E2.91014
G1 X147.502 Y193.132 E2.91485
G1 X150.324 Y187.501 E2.99524
G1 X150.010 Y187.317 E2.99989
G1 X147.165 Y192.992 E3.08092
G1 X146.830 Y192.849 E3.08556
G1 X149.674 Y187.176 E3.16655
G1 X149.337 Y187.036 E3.17120
G1 X146.518 Y192.660 E3.25149
G1 X146.247 Y192.389 E3.25638
G1 X148.987 Y186.924 E3.33441
G1 X148.580 Y186.924 E3.33960
G1 X145.976 Y192.119 E3.41376
G1 X145.725 Y191.809 E3.41885
G1 X148.173 Y186.924 E3.48859
G1 X147.746 Y186.965 E3.49407
G1 X145.541 Y191.365 E3.55689
G1 X145.357 Y190.921 E3.56302
G1 X147.233 Y187.178 E3.61646
G1 X146.719 Y187.391 E3.62356
G1 X145.299 Y190.224 E3.66400
G1 X145.658 Y188.698 F6000.000
G1 X145.904 Y188.206 E3.67101 F900.000
G1 E1.17101 F1200.00000
G92 E0
G1 Z1.113 F6000.000
G1 X149.287 Y190.708 F6000.000
G1 E2.50000 F1200.00000
M106 S255
G1 X149.012 Y190.982 E2.50555 F2400.000
G1 X148.621 Y191.144 E2.51160
G1 X148.198 Y191.144 E2.51765
G1 X147.807 Y190.982 E2.52370
G1 X147.507 Y190.683 E2.52975
G1 X147.345 Y190.292 E2.53580
G1 X147.345 Y189.868 E2.54186
G1 X147.507 Y189.477 E2.54791
G1 X147.807 Y189.178 E2.55396
G1 X148.198 Y189.016 E2.56001
G1 X148.621 Y189.016 E2.56606
G1 X148.980 Y189.164 E2.57161
M106 S255
M106 S255
G1 X149.419 Y189.699 E2.58150 F2400.000
G1 X149.488 Y190.046 E2.58655
G1 X149.302 Y190.658 E2.59568
M106 S255
G1 X149.460 Y190.881 F6000.000
M106 S255
G1 X149.151 Y191.190 E2.60193 F2400.000
G1 X148.670 Y191.389 E2.60937
G1 X148.149 Y191.389 E2.61682
G1 X147.668 Y191.190 E2.62426
G1 X147.300 Y190.822 E2.63170
G1 X147.100 Y190.340 E2.63915
G1 X147.100 Y189.820 E2.64659
G1 X147.300 Y189.338 E2.65403
G1 X147.668 Y188.970 E2.66148
G1 X148.149 Y188.771 E2.66892
G1 X148.670 Y188.771 E2.67637
G1 X149.130 Y188.962 E2.68349
M106 S255
M106 S255
G1 X149.647 Y189.591 E2.69513 F2400.000
G1 X149.740 Y190.058 E2.70193
G1 X149.497 Y190.844 E2.71368
M106 S255
G1 X149.644 Y191.065 F6000.000
M106 S255
G1 X149.298 Y191.410 E2.72066 F2400.000
G1 X148.722 Y191.649 E2.72958
G1 X148.097 Y191.649 E2.73851
G1 X147.521 Y191.410 E2.74743
G1 X147.079 Y190.969 E2.75635
G1 X146.840 Y190.392 E2.76527
G1 X146.840 Y189.768 E2.77419
G1 X147.079 Y189.191 E2.78312
G1 X147.521 Y188.750 E2.79203
G1 X148.097 Y188.511 E2.80095
G1 X148.722 Y188.511 E2.80988
G1 X149.290 Y188.746 E2.81867
M106 S255
M106 S255
G1 X149.889 Y189.477 E2.83217 F2400.000
G1 X150.007 Y190.071 E2.84083
G1 X149.733 Y190.975 E2.85434
G1 X149.681 Y191.028 E2.85539
M106 S255
G1 X149.034 Y189.633 F6000.000
M106 S255
G1 X148.679 Y189.279 E2.86724 F3600.000
G1 X147.959 Y189.282 E2.88427
G1 X149.182 Y190.504 E2.92515
G1 X148.841 Y190.886 E2.93726
G1 X147.603 Y189.649 E2.97863
G1 X147.628 Y190.396 E2.99630
G1 X148.093 Y190.862 E3.01188
M106 S255
G1 E0.51188 F1200.00000
G92 E0
G1 Z1.313 F6000.000
G1 X151.715 Y191.693 F6000.000
G1 E2.50000 F1200.00000
M106 S255
G1 X151.553 Y192.226 E2.50797 F2400.000
G1 X150.528 Y193.251 E2.52867
G1 X149.154 Y193.821 E2.54994
G1 X147.665 Y193.821 E2.57122
G1 X146.291 Y193.251 E2.59249
G1 X145.239 Y192.199 E2.61374
G1 X144.669 Y190.824 E2.63501
G1 X144.669 Y189.336 E2.65629
G1 X145.239 Y187.961 E2.67756
G1 X146.291 Y186.909 E2.69882
G1 X147.665 Y186.339 E2.72008
G1 X149.154 Y186.339 E2.74136
G1 X150.493 Y186.894 E2.76208
M106 S255
M106 S255
G1 X151.940 Y188.659 E2.79469 F2400.000
G1 X152.215 Y190.042 E2.81485
G1 X151.730 Y191.643 E2.83875
M106 S255
G1 X151.980 Y191.773 F6000.000
M106 S255
G1 X151.798 Y192.373 E2.84771 F2400.000
G1 X150.685 Y193.486 E2.87020
G1 X149.209 Y194.098 E2.89304
G1 X147.610 Y194.098 E2.91589
G1 X146.134 Y193.486 E2.93874
G1 X145.004 Y192.356 E2.96157
G1 X144.392 Y190.879 E2.98441
G1 X144.392 Y189.280 E3.00727
G1 X145.004 Y187.804 E3.03011
G1 X146.134 Y186.674 E3.05294
G1 X147.610 Y186.062 E3.07579
G1 X149.209 Y186.062 E3.09864
G1 X150.663 Y186.665 E3.12114
M106 S255
M106 S255
G1 X152.199 Y188.536 E3.15573 F2400.000
G1 X152.501 Y190.056 E3.17788
G1 X151.995 Y191.723 E3.20277
M106 S255
G1 X152.259 Y191.858 F6000.000
M106 S255
G1 X152.056 Y192.528 E3.21277 F2400.000
G1 X150.851 Y193.733 E3.23714
G1 X149.267 Y194.390 E3.26164
G1 X147.552 Y194.390 E3.28616
G1 X145.968 Y193.733 E3.31066
G1 X144.756 Y192.521 E3.33515
G1 X144.099 Y190.938 E3.35966
G1 X144.099 Y189.222 E3.38417
G1 X144.756 Y187.639 E3.40868
G1 X145.968 Y186.427 E3.43317
G1 X147.552 Y185.770 E3.45767
G1 X149.267 Y185.770 E3.48219
G1 X150.843 Y186.423 E3.50656
M106 S255
M106 S255
G1 X152.471 Y188.408 E3.54325 F2400.000
G1 X152.802 Y190.071 E3.56748
G1 X152.275 Y191.808 E3.59342
M106 S255
G1 X151.394 Y191.885 F6000.000
M106 S255
G1 X151.189 Y192.241 E3.59937 F3600.000
M106 S255
G1 X150.174 Y193.177 F6000.000
M106 S255
G1 X151.919 Y190.153 E3.64995 F3600.000
G1 X151.884 Y189.392 E3.66099
G1 X149.550 Y193.435 E3.72863
G1 X148.952 Y193.648 E3.73781
G1 X151.763 Y188.780 E3.81924
G1 X151.511 Y188.394 E3.82592
G1 X148.478 Y193.648 E3.91381
G1 X148.003 Y193.648 E3.92069
G1 X151.232 Y188.055 E4.01426
G1 X150.954 Y187.715 E4.02063
G1 X147.554 Y193.604 E4.11915
G1 X147.171 Y193.445 E4.12515
G1 X150.675 Y187.375 E4.22669
G1 X150.390 Y187.047 E4.23299
G1 X146.788 Y193.286 E4.33737
G1 X146.413 Y193.112 E4.34335
G1 X150.018 Y186.868 E4.44781
G1 X149.635 Y186.709 E4.45381
G1 X146.100 Y192.833 E4.55625
G1 X145.799 Y192.532 E4.56242
G1 X149.252 Y186.551 E4.66249
G1 X148.800 Y186.512 E4.66906
G1 X145.498 Y192.231 E4.76474
G1 X145.271 Y191.802 E4.77177
G1 X148.325 Y186.512 E4.86027
G1 X147.851 Y186.512 E4.86715
G1 X145.073 Y191.324 E4.94764
G1 X144.886 Y190.824 E4.95537
G1 X147.248 Y186.733 E5.02380
G1 X146.624 Y186.992 E5.03359
G1 X144.886 Y190.002 E5.08394
M106 S255
G1 X145.354 Y188.370 F6000.000
M106 S255
G1 X145.592 Y187.957 E5.09083 F3600.000
M106 S255
G1 E2.59083 F1200.00000
G92 E0
G1 Z1.513 F6000.000
G1 X152.549 Y191.946 F6000.000
G1 E2.50000 F1200.00000
G1 X152.345 Y192.617 E2.50550 F900.000
G1 X152.309 Y192.686 E2.50611
G1 X150.983 Y193.997 E2.52073
G1 X149.248 Y194.688 E2.53537
G1 X149.061 Y194.669 E2.53684
G1 X147.459 Y194.669 E2.54940
G1 X147.255 Y194.569 E2.55118
G1 X145.775 Y193.956 E2.56374
G1 X145.625 Y193.785 E2.56552
G1 X144.493 Y192.653 E2.57807
G1 X144.419 Y192.438 E2.57985
G1 X143.806 Y190.958 E2.59241
G1 X143.798 Y189.278 E2.60558
G1 X143.832 Y189.090 E2.60708
G1 X143.920 Y188.925 E2.60855
G1 X144.534 Y187.446 E2.62110
G1 X144.704 Y187.295 E2.62289
G1 X145.836 Y186.163 E2.63544
G1 X146.051 Y186.090 E2.63722
G1 X147.531 Y185.476 E2.64978
G1 X147.758 Y185.491 E2.65156
G1 X149.360 Y185.491 E2.66412 F900.000
G1 X149.564 Y185.591 E2.66590
G1 X151.044 Y186.204 E2.67846
G1 X152.706 Y188.217 E2.69893
G1 X152.765 Y188.360 E2.70013
G1 X152.783 Y188.546 E2.70160
G1 X153.095 Y190.117 E2.71416
G1 X152.564 Y191.896 E2.72871
G1 X152.814 Y192.026 F6000.000
M106 S255
G1 X152.602 Y192.724 E2.73913 F2400.000
G1 X152.540 Y192.840 E2.74102
G1 X152.456 Y192.943 E2.74291
G1 X152.301 Y193.070 E2.74578
G1 X151.149 Y194.222 E2.76905
G1 X149.356 Y194.955 E2.79675
G1 X149.248 Y194.966 E2.79830
G1 X149.048 Y194.946 E2.80117
G1 X147.418 Y194.946 E2.82447
G1 X145.631 Y194.196 E2.85216
G1 X144.268 Y192.820 E2.87985
G1 X143.534 Y191.026 E2.90754
G1 X143.521 Y189.265 E2.93272
G1 X143.536 Y189.110 E2.93494
G1 X143.575 Y188.984 E2.93682
G1 X143.669 Y188.807 E2.93969
G1 X144.294 Y187.302 E2.96298
G1 X145.670 Y185.938 E2.99067
G1 X147.463 Y185.205 E3.01836
G1 X147.571 Y185.194 E3.01991
G1 X147.771 Y185.214 E3.02278
M106 S255
M106 S255
G1 X149.401 Y185.214 E3.04608 F2400.000
G1 X151.188 Y185.964 E3.07378
G1 X151.272 Y186.033 E3.07533
G1 X152.937 Y188.063 E3.11285
G1 X153.000 Y188.179 E3.11474
G1 X153.038 Y188.306 E3.11663
G1 X153.058 Y188.506 E3.11950
G1 X153.375 Y190.103 E3.14278
G1 X153.365 Y190.211 E3.14433
G1 X152.829 Y191.976 E3.17069
M106 S255
G1 X153.094 Y192.111 F6000.000
M106 S255
G1 X152.874 Y192.836 E3.18152 F2400.000
G1 X152.784 Y193.004 E3.18423
G1 X152.664 Y193.150 E3.18694
G1 X152.497 Y193.287 E3.19002
G1 X151.325 Y194.459 E3.21371
G1 X151.166 Y194.544 E3.21629
G1 X150.960 Y194.607 E3.21937
G1 X149.428 Y195.242 E3.24307
G1 X149.248 Y195.260 E3.24566
G1 X149.033 Y195.238 E3.24873
G1 X147.374 Y195.238 E3.27245
G1 X147.201 Y195.186 E3.27503
G1 X147.011 Y195.084 E3.27811
G1 X145.479 Y194.449 E3.30181
G1 X145.339 Y194.334 E3.30440
G1 X145.203 Y194.168 E3.30748
G1 X144.031 Y192.996 E3.33116
G1 X143.945 Y192.836 E3.33375
G1 X143.883 Y192.630 E3.33683
G1 X143.248 Y191.098 E3.36053
G1 X143.229 Y190.910 E3.36324
G1 X143.229 Y189.250 E3.38695
G1 X143.249 Y189.053 E3.38978
G1 X143.304 Y188.872 E3.39249
G1 X143.405 Y188.682 E3.39557
G1 X144.040 Y187.150 E3.41927
G1 X144.155 Y187.010 E3.42186
G1 X144.322 Y186.873 E3.42494
G1 X145.494 Y185.701 E3.44863
G1 X145.653 Y185.616 E3.45121
G1 X145.859 Y185.553 E3.45429
G1 X147.391 Y184.918 E3.47799
G1 X147.571 Y184.900 E3.48058
G1 X147.786 Y184.922 E3.48366
M106 S255
M106 S255
G1 X149.445 Y184.922 E3.50737 F2400.000
G1 X149.618 Y184.974 E3.50995
G1 X149.808 Y185.076 E3.51303
G1 X151.340 Y185.711 E3.53673
G1 X151.480 Y185.826 E3.53932
G1 X153.181 Y187.900 E3.57766
G1 X153.271 Y188.067 E3.58037
G1 X153.326 Y188.248 E3.58308
G1 X153.347 Y188.463 E3.58616
G1 X153.670 Y190.089 E3.60985
G1 X153.652 Y190.269 E3.61244
G1 X153.109 Y192.061 E3.63920
M106 S255
G1 E1.13920 F1200.00000
G92 E0
G1 X149.867 Y188.229 F6000.000
G1 E2.50000 F1200.00000
G1 X149.556 Y187.918 E2.50392 F947.548
G1 X148.806 Y187.613 F6000.000
G1 X150.819 Y189.626 E2.52927 F947.548
G1 X150.875 Y190.127 E2.53376
G1 X148.361 Y187.613 E2.56541
G1 X147.916 Y187.613 E2.56937
G1 X150.771 Y190.469 E2.60533
G1 X150.668 Y190.810 E2.60851
G1 X147.587 Y187.729 E2.64730
G1 X147.273 Y187.860 E2.65034
G1 X150.564 Y191.152 E2.69179
G1 X150.461 Y191.493 E2.69497
G1 X146.980 Y188.012 E2.73880
G1 X146.757 Y188.235 E2.74160
G1 X150.255 Y191.732 E2.78565
G1 X150.032 Y191.955 E2.78845
G1 X146.535 Y188.457 E2.83250
G1 X146.312 Y188.680 E2.83530
G1 X149.810 Y192.177 E2.87935
G1 X149.505 Y192.317 E2.88233
G1 X146.172 Y188.985 E2.92431
G1 X146.042 Y189.299 E2.92734
G1 X149.190 Y192.448 E2.96699
G1 X148.844 Y192.547 E2.97020
G1 X145.943 Y189.646 E3.00673
G1 X145.943 Y190.091 E3.01069
G1 X148.399 Y192.547 E3.04162
G1 X147.923 Y192.516 E3.04587
G1 X145.973 Y190.566 E3.07042
G1 X146.289 Y191.327 F6000.000
G1 X147.163 Y192.201 E3.08143 F947.548
G1 X147.854 Y192.742 F6000.000
M106 S255
G1 X144.854 Y192.742 E3.12453 F3600.000
G1 X144.555 Y192.333 E3.13181
G1 X146.940 Y192.333 E3.16607
G1 X146.530 Y191.923 E3.17440
G1 X144.385 Y191.923 E3.20521
G1 X144.216 Y191.514 E3.21158
G1 X146.183 Y191.514 E3.23985
G1 X146.013 Y191.104 E3.24622
G1 X144.046 Y191.104 E3.27449
G1 X143.982 Y190.694 E3.28045
G1 X145.843 Y190.694 E3.30718
G1 X145.813 Y190.285 E3.31309
G1 X143.982 Y190.285 E3.33938
G1 X143.982 Y189.875 E3.34527
G1 X145.813 Y189.875 E3.37157
G1 X145.843 Y189.466 E3.37747
G1 X143.982 Y189.466 E3.40421
G1 X144.035 Y189.056 E3.41014
G1 X146.013 Y189.056 E3.43856
G1 X146.183 Y188.646 E3.44493
G1 X144.208 Y188.646 E3.47331
G1 X144.381 Y188.237 E3.47969
G1 X146.530 Y188.237 E3.51058
G1 X146.940 Y187.827 E3.51890
G1 X144.553 Y187.827 E3.55319
G1 X144.854 Y187.418 E3.56050
G1 X147.854 Y187.418 E3.60360
M106 S255
G1 X148.965 Y187.418 F6000.000
M106 S255
G1 X151.811 Y187.418 E3.64449 F3600.000
G1 X151.475 Y187.008 E3.65210
G1 X145.264 Y187.008 E3.74135
G1 X145.673 Y186.598 E3.74968
G1 X151.139 Y186.598 E3.82821
G1 X150.397 Y186.189 E3.84038
G1 X146.419 Y186.189 E3.89755
M106 S255
G1 X147.407 Y185.779 F6000.000
M106 S255
G1 X149.447 Y185.779 E3.92686 F3600.000
M106 S255
G1 X149.814 Y187.827 F6000.000
M106 S255
G1 X152.147 Y187.827 E3.96038 F3600.000
G1 X152.483 Y188.237 E3.96800
G1 X150.150 Y188.237 E4.00152
G1 X150.486 Y188.646 E4.00913
G1 X152.650 Y188.646 E4.04022
G1 X152.729 Y189.056 E4.04622
G1 X150.823 Y189.056 E4.07361
G1 X150.937 Y189.466 E4.07972
G1 X152.808 Y189.466 E4.10661
G1 X152.887 Y189.875 E4.11261
G1 X151.018 Y189.875 E4.13946
G1 X150.952 Y190.285 E4.14542
G1 X152.876 Y190.285 E4.17307
G1 X152.753 Y190.694 E4.17922
G1 X150.828 Y190.694 E4.20689
G1 X150.703 Y191.104 E4.21304
G1 X152.631 Y191.104 E4.24073
G1 X152.508 Y191.514 E4.24687
G1 X150.579 Y191.514 E4.27458
G1 X150.289 Y191.923 E4.28180
